assets/sonr-icons/eye-show.svg

<svg xmlns="http://www.w3.org/2000/svg" width="24" height="24" fill="none" viewBox="0 0 24 24"><path fill="#000" d="M12 6C7.14403 6 4.89003 9.773 4.09703 11.554C3.97003 11.841 3.97003 12.16 4.09703 12.447C4.89003 14.227 7.14503 18.001 12 18.001C16.855 18.001 19.11 14.228 19.903 12.447C20.031 12.16 20.031 11.841 19.903 11.554C19.11 9.774 16.856 6 12 6ZM2.27003 10.74C3.13903 8.788 5.89203 4 12.001 4C18.11 4 20.862 8.788 21.731 10.74C22.089 11.545 22.089 12.455 21.731 13.26C20.862 15.212 18.11 20 12.001 20C5.89203 20 3.14003 15.213 2.27003 13.26C1.91203 12.455 1.91203 11.545 2.27003 10.74Z"/><path fill="#000" d="M12 8C9.79 8 8 9.791 8 12C8 14.209 9.791 16 12 16C14.209 16 16 14.209 16 12C16 9.791 14.209 8 12 8ZM11.915 10.002C11.943 10 11.971 10 12 10C13.105 10 14 10.896 14 12C14 13.104 13.105 14 12 14C10.895 14 10 13.104 10 12C10 11.972 10.001 11.944 10.002 11.915C10.158 11.97 10.325 12 10.5 12C11.329 12 12 11.329 12 10.5C12 10.325 11.97 10.158 11.915 10.002Z"/></svg>

<svg xmlns="http://www.w3.org/2000/svg" width="24" height="24" fill="none"><path fill="currentColor" d="M12 6c-4.856 0-7.11 3.773-7.903 5.554a1.1 1.1 0 0 0 0 .893c.793 1.78 3.048 5.554 7.903 5.554s7.11-3.773 7.903-5.554a1.09 1.09 0 0 0 0-.893C19.11 9.774 16.856 6 12 6m-9.73 4.74C3.139 8.788 5.892 4 12.001 4s8.861 4.788 9.73 6.74a3.1 3.1 0 0 1 0 2.52c-.869 1.952-3.621 6.74-9.73 6.74S3.14 15.213 2.27 13.26a3.1 3.1 0 0 1 0-2.52"/><path fill="currentColor" d="M12 8a4 4 0 1 0 0 8 4 4 0 0 0 0-8m-.085 2.002q.042-.003.085-.002a2 2 0 1 1-2 2l.002-.085q.235.084.498.085a1.5 1.5 0 0 0 1.415-1.998"/></svg>
